X: 1
T: the Road to Lisdoonvarna
O: trad Ireland
R: jig
Z: 2016 by John Chambers <jc:trillian.mit.edu>
S: printed page of unknown origin in the Concord Slow Scottish Jam collection
O: trad Ireland
M: 6/8
L: 1/8
K: EDor
|:\
"Em"E2B {Bc}B2A | "(Bm)"B2c d3 | "D"{DE}F2A ABA | D2E {FG}FED |
"Em"E2B {Bc}B2A | "(Bm)"B2c d3 | "A"cdc {Bc}B2A |1 "Em"B2E E2D :|2 "Em"B2E E3 :|
|:\
"Em"e2f {a}gfe | "G"d2B Bcd | "A"{cd}c2A ABc | "G"d2B B3 |
"Em"e2f {a}gfe | "G"d2B Bcd | "A"cdc B2A | "Em"B2E E3 :|
